img/logo.svg

<svg width="40" height="40" viewBox="0 0 40 40" fill="none" xmlns="http://www.w3.org/2000/svg">
<g clip-path="url(#clip0_74227_8)">
<path d="M9.33879 14.7235L4.07221 19.9901L9.33879 25.2566L14.6054 19.9901L9.33879 14.7235Z" fill="#D7B399"/>
<path d="M19.9944 4.08541L14.7278 9.35199L19.9944 14.6186L25.261 9.35199L19.9944 4.08541Z" fill="#D7B399"/>
<path d="M19.9914 25.3938L14.7248 30.6604L19.9913 35.927L25.2579 30.6604L19.9914 25.3938Z" fill="#D7B399"/>
<path d="M30.647 14.7266L25.3804 19.9932L30.647 25.2597L35.9136 19.9932L30.647 14.7266Z" fill="#D7B399"/>
<path d="M28.6102 12.6866L23.3436 17.9532L25.3828 19.9923L30.6494 14.7258L28.6102 12.6866Z" fill="#D7B399"/>
<path d="M17.9547 23.3532L12.6881 28.6198L14.7273 30.659L19.9938 25.3924L17.9547 23.3532Z" fill="#D7B399"/>
<path d="M25.2587 9.35299L19.9921 14.6196L22.0313 16.6587L27.2978 11.3921L25.2587 9.35299Z" fill="#D7B399"/>
<path d="M14.6177 20.0053L9.35116 25.2719L11.3903 27.311L16.6569 22.0444L14.6177 20.0053Z" fill="#D7B399"/>
<path d="M11.3788 12.6864L9.33961 14.7256L14.6062 19.9922L16.6453 17.953L11.3788 12.6864Z" fill="#D7B399"/>
<path d="M14.727 9.34953L12.6879 11.3887L17.9544 16.6552L19.9936 14.6161L14.727 9.34953Z" fill="#D7B399"/>
<path d="M25.3796 19.9905L23.3405 22.0296L28.607 27.2962L30.6462 25.257L25.3796 19.9905Z" fill="#D7B399"/>
<path d="M22.046 23.342L20.0069 25.3812L25.2734 30.6477L27.3126 28.6086L22.046 23.342Z" fill="#D7B399"/>
<path d="M27.3029 32.6971L25.2697 30.6639L20 35.9336L14.7303 30.6639L12.6971 32.6971L20 40L27.3029 32.6971Z" fill="#D7B399"/>
<path d="M9.3361 14.7303L7.3029 12.6971L0 20L7.3029 27.3029L9.3361 25.2697L4.06639 20L9.3361 14.7303Z" fill="#D7B399"/>
<path d="M32.6971 12.6971L30.6639 14.7303L35.9336 20L30.6639 25.2697L32.6971 27.3029L40 20L32.6971 12.6971Z" fill="#D7B399"/>
<path d="M25.2697 9.3361L27.3029 7.3029L20 0L12.6971 7.3029L14.7303 9.3361L20 4.06639L25.2697 9.3361Z" fill="#D7B399"/>
</g>
<defs>
<clipPath id="clip0_74227_8">
<rect width="40" height="40" fill="white"/>
</clipPath>
</defs>
</svg>

<svg width="40" height="40" fill="none" xmlns="http://www.w3.org/2000/svg"><g clip-path="url(#a)" fill="#D7B399"><path d="M9.339 14.723 4.072 19.99l5.267 5.267 5.266-5.267-5.266-5.267ZM19.994 4.085l-5.266 5.267 5.266 5.267 5.267-5.267-5.267-5.267ZM19.991 25.394l-5.266 5.266 5.266 5.267 5.267-5.267-5.267-5.266ZM30.647 14.727l-5.267 5.266 5.267 5.267 5.267-5.267-5.267-5.266Z"/><path d="m28.61 12.687-5.266 5.266 2.039 2.04 5.266-5.267-2.039-2.04ZM17.955 23.353l-5.267 5.267 2.04 2.039 5.266-5.267-2.04-2.039ZM25.259 9.353l-5.267 5.267 2.04 2.039 5.266-5.267-2.04-2.039ZM14.618 20.005 9.35 25.272l2.04 2.039 5.266-5.267-2.04-2.039ZM11.379 12.686l-2.04 2.04 5.267 5.266 2.04-2.039-5.267-5.267ZM14.727 9.35l-2.04 2.039 5.267 5.266 2.04-2.039-5.267-5.266ZM25.38 19.99l-2.04 2.04 5.267 5.266 2.04-2.039-5.267-5.267ZM22.046 23.342l-2.04 2.04 5.267 5.266 2.04-2.04-5.267-5.266ZM27.303 32.697l-2.033-2.033-5.27 5.27-5.27-5.27-2.033 2.033L20 40l7.303-7.303ZM9.336 14.73l-2.033-2.033L0 20l7.303 7.303 2.033-2.033L4.066 20l5.27-5.27ZM32.697 12.697l-2.033 2.033 5.27 5.27-5.27 5.27 2.033 2.033L40 20l-7.303-7.303ZM25.27 9.336l2.033-2.033L20 0l-7.303 7.303 2.033 2.033L20 4.066l5.27 5.27Z"/></g><defs><clipPath id="a"><path fill="#fff" d="M0 0h40v40H0z"/></clipPath></defs></svg>
